icons/folder-node-open.svg

<?xml version="1.0" encoding="UTF-8"?>
<svg clip-rule="evenodd" fill-rule="evenodd" stroke-linejoin="round" stroke-miterlimit="1.4142" version="1.1" viewBox="0 0 24 24" xml:space="preserve" xmlns="http://www.w3.org/2000/svg"><path d="m19 20h-15c-1.11 0-2-0.9-2-2v-12c0-1.11 0.89-2 2-2h6l2 2h7c1.097 0 2 0.903 2 2h-17v10l2.14-8h17.07l-2.28 8.5c-0.23 0.87-1.01 1.5-1.93 1.5z" fill="#9ccc65" fill-rule="nonzero"/><g transform="matrix(.69444 0 0 .69444 8.9167 7.1181)" fill="#f1f8e9"><path d="m12 1.85c-0.27 0-0.55 0.07-0.78 0.2l-7.44 4.3c-0.48 0.28-0.78 0.8-0.78 1.36v8.58c0 0.56 0.3 1.08 0.78 1.36l1.95 1.12c0.95 0.46 1.27 0.47 1.71 0.47 1.4 0 2.21-0.85 2.21-2.33v-8.47c0-0.12-0.1-0.22-0.22-0.22h-0.93c-0.13 0-0.23 0.1-0.23 0.22v8.47c0 0.66-0.68 1.31-1.77 0.76l-2.05-1.17c-0.07-0.05-0.11-0.13-0.11-0.21v-8.58c0-0.09 0.04-0.17 0.11-0.21l7.44-4.29c0.06-0.04 0.16-0.04 0.22 0l7.44 4.29c0.07 0.04 0.11 0.12 0.11 0.21v8.58c0 0.08-0.04 0.16-0.11 0.21l-7.44 4.29c-0.06 0.04-0.16 0.04-0.23 0l-1.88-1.14c-0.08-0.03-0.16-0.04-0.21-0.01-0.53 0.3-0.63 0.36-1.12 0.51-0.12 0.04-0.31 0.11 0.07 0.32l2.48 1.47c0.24 0.14 0.5 0.21 0.78 0.21s0.54-0.07 0.78-0.21l7.44-4.29c0.48-0.28 0.78-0.8 0.78-1.36v-8.58c0-0.56-0.3-1.08-0.78-1.36l-7.44-4.3c-0.23-0.13-0.5-0.2-0.78-0.2m2 6.15c-2.12 0-3.39 0.89-3.39 2.39 0 1.61 1.26 2.08 3.3 2.28 2.43 0.24 2.62 0.6 2.62 1.08 0 0.83-0.67 1.18-2.23 1.18-1.98 0-2.4-0.49-2.55-1.47-0.02-0.1-0.11-0.18-0.22-0.18h-0.96c-0.12 0-0.21 0.09-0.21 0.22 0 1.24 0.68 2.74 3.94 2.74 2.35 0 3.7-0.93 3.7-2.55 0-1.61-1.08-2.03-3.37-2.34-2.31-0.3-2.54-0.46-2.54-1 0-0.45 0.2-1.05 1.91-1.05 1.5 0 2.09 0.33 2.32 1.36 0.02 0.1 0.11 0.17 0.21 0.17h0.97c0.05 0 0.11-0.02 0.15-0.07 0.04-0.04 0.07-0.1 0.05-0.16-0.14-1.78-1.32-2.6-3.7-2.6z" fill="#f1f8e9" fill-rule="nonzero"/></g></svg>

<?xml version="1.0" encoding="UTF-8" standalone="no"?>
<!DOCTYPE svg PUBLIC "-//W3C//DTD SVG 1.1//EN" "http://www.w3.org/Graphics/SVG/1.1/DTD/svg11.dtd">
<svg width="100%" height="100%" viewBox="0 0 24 24" version="1.1" xmlns="http://www.w3.org/2000/svg" xmlns:xlink="http://www.w3.org/1999/xlink" xml:space="preserve" style="fill-rule:evenodd;clip-rule:evenodd;stroke-linejoin:round;stroke-miterlimit:1.41421;">
    <path id="path2" d="M19,20L4,20C2.89,20 2,19.1 2,18L2,6C2,4.89 2.89,4 4,4L10,4L12,6L19,6C20.097,6 21,6.903 21,8L4,8L4,18L6.14,10L23.21,10L20.93,18.5C20.7,19.37 19.92,20 19,20Z" style="fill:rgb(124,179,66);fill-rule:nonzero;"/>
    <g id="path4" transform="matrix(0.694444,0,0,0.694444,8.91667,7.11806)">
        <path d="M12,1.85C11.73,1.85 11.45,1.92 11.22,2.05L3.78,6.35C3.3,6.63 3,7.15 3,7.71L3,16.29C3,16.85 3.3,17.37 3.78,17.65L5.73,18.77C6.68,19.23 7,19.24 7.44,19.24C8.84,19.24 9.65,18.39 9.65,16.91L9.65,8.44C9.65,8.32 9.55,8.22 9.43,8.22L8.5,8.22C8.37,8.22 8.27,8.32 8.27,8.44L8.27,16.91C8.27,17.57 7.59,18.22 6.5,17.67L4.45,16.5C4.38,16.45 4.34,16.37 4.34,16.29L4.34,7.71C4.34,7.62 4.38,7.54 4.45,7.5L11.89,3.21C11.95,3.17 12.05,3.17 12.11,3.21L19.55,7.5C19.62,7.54 19.66,7.62 19.66,7.71L19.66,16.29C19.66,16.37 19.62,16.45 19.55,16.5L12.11,20.79C12.05,20.83 11.95,20.83 11.88,20.79L10,19.65C9.92,19.62 9.84,19.61 9.79,19.64C9.26,19.94 9.16,20 8.67,20.15C8.55,20.19 8.36,20.26 8.74,20.47L11.22,21.94C11.46,22.08 11.72,22.15 12,22.15C12.28,22.15 12.54,22.08 12.78,21.94L20.22,17.65C20.7,17.37 21,16.85 21,16.29L21,7.71C21,7.15 20.7,6.63 20.22,6.35L12.78,2.05C12.55,1.92 12.28,1.85 12,1.85M14,8C11.88,8 10.61,8.89 10.61,10.39C10.61,12 11.87,12.47 13.91,12.67C16.34,12.91 16.53,13.27 16.53,13.75C16.53,14.58 15.86,14.93 14.3,14.93C12.32,14.93 11.9,14.44 11.75,13.46C11.73,13.36 11.64,13.28 11.53,13.28L10.57,13.28C10.45,13.28 10.36,13.37 10.36,13.5C10.36,14.74 11.04,16.24 14.3,16.24C16.65,16.24 18,15.31 18,13.69C18,12.08 16.92,11.66 14.63,11.35C12.32,11.05 12.09,10.89 12.09,10.35C12.09,9.9 12.29,9.3 14,9.3C15.5,9.3 16.09,9.63 16.32,10.66C16.34,10.76 16.43,10.83 16.53,10.83L17.5,10.83C17.55,10.83 17.61,10.81 17.65,10.76C17.69,10.72 17.72,10.66 17.7,10.6C17.56,8.82 16.38,8 14,8Z" style="fill:white;fill-rule:nonzero;"/>
    </g>
</svg>
